X: 0
T: nu_er_det_jul_igen
L: 1/4
M: 3/4
V: P1 name="Fiddle"
%%MIDI program 1 110
V: P2 name="Guitar"
%%MIDI program 2 24
V: P3 name="Guitar-2"
%%MIDI program 3 24
V: P4 name="Bass"
%%MIDI program 4 32
V: P5 name="Tempo Track"
%%MIDI program 5 -1
K: C
[V: P1] z3 | F/F/4F/4 F/C/ A,/C/ | F/F/4F/4 F/C/ A,/C/ | F/E/ F/G/ A/^A/ | c cz | F/F/4F/4 F/C/ A,/C/ | F/F/4F/4 F/C/ A,/C/ | F/E/ F/G/ A/^A/ | d cz | ^A/A/4A/4 d/A/ A/A/ | A/A/4A/4 c/A/ A/A/ | G/A/ ^A/G/ D/E/ | G Fz | F/F/4F/4 F/C/ A,/C/ | F/F/4F/4 F/C/ A,/C/ | F/E/ F/G/ A/^A/ | c cz | F/F/4F/4 F/C/ A,/C/ | F/F/4F/4 F/C/ A,/C/ | F/E/ F/G/ A/^A/ | d cz | ^A/A/4A/4 d/A/ A/A/ | A/A/4A/4 c/A/ A/A/ | G/A/ ^A/G/ D/E/ | G F2|]
[V: P2] z3 | [F,2A,2C2F2] F,/4A,/4C/4F/4 | [F,3A,3C3F3] | [F,A,CF] [A,2D2F2] | [G,CE] [G,2C2E2] | [F,2A,2C2F2] F,/4A,/4C/4F/4 | [F,3A,3C3F3] | [F,A,CF] [A,DF] [DF] | [^A,DF] [CEG]z | [G,^A,DG] [F,2A,2D2F2] | [F,A,CF] [E,2A,2C2E2] | [G,^A,DG] [C2-E2-G2-] | [CEG] [F,A,CF]z | [F,2A,2C2F2] F,/4A,/4C/4F/4 | [F,3A,3C3F3] | [F,A,CF] [A,2D2F2] | [G,CE] [G,2C2E2] | [F,2A,2C2F2] F,/4A,/4C/4F/4 | [F,3A,3C3F3] | [F,A,CF] [A,DF] [DF] | [^A,DF] [CEG]z | [G,^A,DG] [F,2A,2D2F2] | [F,A,CF] [E,2A,2C2E2] | [G,^A,DG] [C2-E2-G2-] | [CEG] [F,2A,2C2F2]|]
[V: P3] z3 |z3 |z3 |z D,2 | C, C,2 |z3 |z3 |z D,2 | ^A,, C,z | [G,,D,] ^A,,2 | [F,,C,] A,,2 | [G,,D,] [C,,2-C,2-] | [C,,C,] [F,,C,]z |z3 |z3 |z D,2 | C, C,2 |z3 |z3 |z D,2 | ^A,, C,z | [G,,D,] ^A,,2 | [F,,C,] A,,2 | [G,,D,] [C,,2-C,2-] | [C,,C,] [F,,2C,2]|]
[V: P4] z3 | F,,3 | F,,3 | F,, D,,2 | C,,3 | F,,3 | F,,3 | F,, D,,2 | ^A,,, C,,2 | G,,, ^A,,,2 | F,,, A,,,2 | G,,, C,,2 | C,, F,,,z | F,,3 | F,,3 | F,, D,,2 | C,,3 | F,,3 | F,,3 | F,, D,,2 | ^A,,, C,,2 | G,,, ^A,,,2 | F,,, A,,,2 | G,,, C,,2 | C,, F,,,2|]
[V: P5] z3|]

